public/static/img/assets/withdraw_icon.svg

<svg width="20" height="20" viewBox="0 0 20 20" fill="none" xmlns="http://www.w3.org/2000/svg">
<path d="M17.2162 12.3145V14.6208C17.2144 15.3087 16.9398 15.9678 16.4528 16.4536C15.9657 16.9393 15.3059 17.2121 14.618 17.2121H4.14819C3.46029 17.2121 2.80047 16.9393 2.3134 16.4536C1.82634 15.9678 1.5518 15.3087 1.54998 14.6208V11.8124C1.54941 11.7892 1.55358 11.7661 1.56221 11.7445C1.57085 11.7229 1.58378 11.7033 1.60022 11.6868C1.61666 11.6704 1.63627 11.6575 1.65786 11.6488C1.67944 11.6402 1.70256 11.636 1.7258 11.6366H2.5335C2.55674 11.636 2.57986 11.6402 2.60144 11.6488C2.62303 11.6575 2.64264 11.6704 2.65908 11.6868C2.67552 11.7033 2.68845 11.7229 2.69709 11.7445C2.70572 11.7661 2.70988 11.7892 2.70932 11.8124V14.2183C2.70932 15.4484 3.30891 16.0466 4.54242 16.0466H14.1956C15.4291 16.0466 16.0294 15.4484 16.0294 14.2183V12.4086H12.9092C12.5694 12.4088 12.2434 12.2741 12.0028 12.0343C11.7621 11.7944 11.6264 11.4688 11.6255 11.129V9.26571C11.6255 8.55967 12.2011 7.98549 12.9092 7.98549H16.0294V5.78288C16.0294 4.55211 15.4291 3.9539 14.1956 3.9539H4.5335C3.29929 3.9539 2.6997 4.55211 2.6997 5.78288V8.18879C2.70018 8.21198 2.69594 8.23502 2.68727 8.25652C2.67859 8.27803 2.66564 8.29756 2.64921 8.31392C2.63278 8.33029 2.6132 8.34316 2.59166 8.35175C2.57012 8.36035 2.54707 8.36449 2.52388 8.36393H1.71619C1.69306 8.36439 1.67008 8.36018 1.64862 8.35155C1.62716 8.34291 1.60766 8.33003 1.59131 8.31367C1.57495 8.29731 1.56207 8.27782 1.55343 8.25636C1.54479 8.2349 1.54058 8.21192 1.54105 8.18879V5.37972C1.54287 4.69189 1.81743 4.03285 2.30452 3.54719C2.7916 3.06152 3.45143 2.78888 4.13926 2.78906H14.6084C15.2963 2.78888 15.9562 3.0615 16.4434 3.54715C16.9305 4.03279 17.2053 4.69182 17.2073 5.37972V8.08164C17.6839 8.28219 18.004 8.74373 18.0239 9.2609V11.129C18.0239 11.6462 17.6997 12.1215 17.2162 12.3145ZM17.0431 9.60294C17.0431 9.2245 16.7299 8.91681 16.346 8.91681H13.3034C12.9188 8.91681 12.6056 9.2245 12.6056 9.60294V10.7073C12.6056 11.0858 12.9188 11.3935 13.3034 11.3935H16.346C16.7299 11.3935 17.0431 11.0816 17.0431 10.6984V9.60294ZM13.6887 10.8825C13.4847 10.8825 13.2814 10.8021 13.1468 10.6668C13.075 10.5985 13.018 10.5162 12.9793 10.425C12.9405 10.3338 12.9209 10.2357 12.9215 10.1366C12.9215 9.91544 12.9985 9.73206 13.1503 9.59263C13.2835 9.46008 13.4813 9.38041 13.6791 9.38041C13.8742 9.38041 14.0733 9.46145 14.2265 9.60156C14.37 9.73412 14.4559 9.93398 14.4559 10.1366C14.4559 10.3248 14.3693 10.5281 14.2299 10.6675C14.0834 10.8054 13.8899 10.8822 13.6887 10.8825ZM1.58775 10.5851C1.57197 10.5654 1.56051 10.5427 1.55412 10.5183C1.54773 10.4939 1.54655 10.4685 1.55067 10.4436L1.54998 9.51846C1.54951 9.49527 1.55374 9.47223 1.56242 9.45072C1.5711 9.42922 1.58404 9.40969 1.60047 9.39332C1.6169 9.37696 1.63648 9.36409 1.65802 9.35549C1.67956 9.3469 1.70262 9.34276 1.7258 9.34332H5.00671L4.84531 9.17711C4.8116 9.14315 4.79177 9.09785 4.78968 9.05005V7.64552C4.78968 7.57684 4.82745 7.51502 4.88858 7.48412L4.91948 7.47038H4.9655C5.03762 7.47038 5.07883 7.51159 5.09462 7.52739L7.41399 9.86805C7.44686 9.90264 7.46512 9.94856 7.46499 9.99627C7.46487 10.044 7.44635 10.0898 7.4133 10.1242L5.09462 12.4642C5.06006 12.4984 5.01409 12.5187 4.9655 12.5212L4.9133 12.5191L4.88927 12.5075C4.85918 12.4926 4.83389 12.4696 4.81627 12.4411C4.79866 12.4125 4.78944 12.3796 4.78968 12.3461V10.9415C4.78968 10.8701 4.8302 10.8296 4.84531 10.8145L5.00671 10.6483H1.7258C1.69954 10.6487 1.67352 10.6432 1.64964 10.6323C1.62576 10.6213 1.60461 10.6052 1.58775 10.5851Z" fill="black"/>
</svg>

<svg width="20" height="20" viewBox="0 0 20 20" fill="none" xmlns="http://www.w3.org/2000/svg"><path d="M17.216 12.315v2.306a2.598 2.598 0 0 1-2.598 2.591H4.148a2.598 2.598 0 0 1-2.598-2.591v-2.809a.172.172 0 0 1 .176-.175h.808a.172.172 0 0 1 .175.175v2.406c0 1.23.6 1.829 1.833 1.829h9.654c1.233 0 1.833-.599 1.833-1.829v-1.81h-3.12a1.283 1.283 0 0 1-1.284-1.279V9.266c0-.706.576-1.28 1.284-1.28h3.12V5.782c0-1.23-.6-1.83-1.833-1.83H4.534c-1.235 0-1.834.6-1.834 1.83v2.406a.172.172 0 0 1-.176.175h-.808a.172.172 0 0 1-.175-.175v-2.81A2.597 2.597 0 0 1 4.14 2.79h10.47a2.598 2.598 0 0 1 2.598 2.59v2.703c.477.2.797.662.817 1.179v1.868c0 .517-.324.992-.808 1.186zm-.173-2.712a.693.693 0 0 0-.697-.686h-3.043a.693.693 0 0 0-.697.686v1.104c0 .379.313.686.697.686h3.043a.697.697 0 0 0 .697-.695V9.603zm-3.354 1.28a.777.777 0 0 1-.542-.216.724.724 0 0 1-.226-.53c0-.222.078-.405.23-.544a.763.763 0 0 1 .528-.213.82.82 0 0 1 .547.222c.144.132.23.332.23.535a.78.78 0 0 1-.226.53.791.791 0 0 1-.541.216zm-12.101-.298a.18.18 0 0 1-.037-.141l-.001-.926a.172.172 0 0 1 .176-.175h3.28l-.16-.166a.192.192 0 0 1-.056-.127V7.646a.18.18 0 0 1 .099-.162l.03-.014h.046c.073 0 .114.042.13.057l2.319 2.341a.185.185 0 0 1 0 .256l-2.32 2.34a.198.198 0 0 1-.129.057l-.052-.002-.024-.011a.18.18 0 0 1-.1-.162v-1.405c0-.07.041-.111.056-.127l.162-.166H1.726a.177.177 0 0 1-.138-.063z" fill="#000"/></svg>
